X:365
T:Butlers of Glen Avenue, The
R:jig
C:Anthony Sullivan
Z:id:hn-jig-365
M:6/8
L:1/8
K:G
DEG EDB,|DEG ~B3|DEG ~B2e|dBe dBA|
DEG EDB,|DEG ~B3|dBd gfe|1dBA ~G3:|2dBa ~g3|
|:gab age|deg ~B3|gab gab|dBd ~e2d|
gab age|deg ~B3|dBd gfe|1dBa ~g3:|2dBA ~G3||
